X:15
T:A tréfás juhász
O: Istensegíts (Bukovina), Lőrincz Márta (29), 1914.
Q: Tempo guisto, 1/4=116
M:2/4
L:1/4
K:C
G/A/B/c/ | B/A/B | 
G/A/B/c/ | B/A/G | 
d/<d/ B/B/ | A G/ z/ | 
d/<d/ B/B/ | A G/ z/ | 

